src/images/logo.svg

<svg width="96" height="96" xmlns="http://www.w3.org/2000/svg"><defs><radialGradient cx="67.979%" cy="71.869%" fx="67.979%" fy="71.869%" r="82.597%" id="a"><stop stop-color="#A0D039" offset="0%"/><stop stop-color="#0DB091" offset="100%"/></radialGradient></defs><path d="M38.634 0C27.633 10.806 15.84 28.455 15.84 50.97c0 10.542 2.649 19.308 7.371 27.387h6.024c-4.719-9.657-6.33-18.225-6.33-27.192 0-21.843 11.142-39.42 22.731-51.165H63.36c10.641 0 14.031 0 18.831 1.599A20.46 20.46 0 0 1 94.401 13.8C96 18.6 96 21.999 96 32.64v30.72c0 10.641 0 14.04-1.599 18.84A20.16 20.16 0 0 1 82.2 94.401C77.4 96 74.001 96 63.36 96H32.64c-10.641 0-14.04 0-18.84-1.599A20.169 20.169 0 0 1 1.599 82.2C0 77.4 0 74.001 0 63.36V32.64C0 21.999 0 18.6 1.599 13.8A20.16 20.16 0 0 1 13.8 1.599C18.6 0 21.999 0 32.64 0h5.994zm23.871 45.12H34.98L33.6 50.4h27.525l1.38-5.28zm10.89-1.92c0 22.752-12.09 40.98-24.186 52.8h6.945c11.403-10.74 24.3-29.061 24.3-52.605 0-10.44-2.532-19.209-7.254-27.189h-6.141c4.722 9.456 6.336 18.126 6.336 26.991v.003z" fill="url(#a)"/></svg>

<?xml version="1.0" encoding="UTF-8"?>
<svg width="96px" height="96px" viewBox="0 0 96 96" version="1.1" xmlns="http://www.w3.org/2000/svg" xmlns:xlink="http://www.w3.org/1999/xlink">
    <!-- Generator: Sketch 52.3 (67297) - http://www.bohemiancoding.com/sketch -->
    <title>logo</title>
    <desc>Created with Sketch.</desc>
    <defs>
        <radialGradient cx="67.979%" cy="71.869%" fx="67.979%" fy="71.869%" r="82.597%" id="radialGradient-1">
            <stop stop-color="#A0D039" offset="0%"></stop>
            <stop stop-color="#0DB091" offset="100%"></stop>
        </radialGradient>
    </defs>
    <g id="logo" stroke="none" stroke-width="1" fill="none" fill-rule="evenodd">
        <g id="logo-full-tymate-colored-aa88fc6efb02395d4efa09e7713708b297e4f6ab89add877c861d9cc2a91341c-(1)" fill="url(#radialGradient-1)" fill-rule="nonzero">
            <path d="M38.634,0 C27.633,10.806 15.84,28.455 15.84,50.97 C15.84,61.512 18.489,70.278 23.211,78.357 L29.235,78.357 C24.516,68.7 22.905,60.132 22.905,51.165 C22.905,29.322 34.047,11.745 45.636,0 L63.36,0 C74.001,0 77.391,0 82.191,1.599 C87.8613333,3.66606668 92.3297527,8.13119246 94.401,13.8 C96,18.6 96,21.999 96,32.64 L96,63.36 C96,74.001 96,77.4 94.401,82.2 C92.3679017,87.8899038 87.8899038,92.3679017 82.2,94.401 C77.4,96 74.001,96 63.36,96 L32.64,96 C21.999,96 18.6,96 13.8,94.401 C8.11079599,92.3667962 3.63320384,87.889204 1.599,82.2 C0,77.4 0,74.001 0,63.36 L0,32.64 C0,21.999 0,18.6 1.599,13.8 C3.63209833,8.11009619 8.11009619,3.63209833 13.8,1.599 C18.6,0 21.999,0 32.64,0 L38.634,0 Z M62.505,45.12 L34.98,45.12 L33.6,50.4 L61.125,50.4 L62.505,45.12 Z M73.395,43.2 C73.395,65.952 61.305,84.18 49.209,96 L56.154,96 C67.557,85.26 80.454,66.939 80.454,43.395 C80.454,32.955 77.922,24.186 73.2,16.206 L67.059,16.206 C71.781,25.662 73.395,34.332 73.395,43.197 L73.395,43.2 Z" id="Shape"></path>
        </g>
    </g>
</svg>
